assets/icons/touchpad.svg

<?xml version="1.0" encoding="UTF-8" standalone="no"?>
<svg viewBox="0 0 24 24" height="24" width="24" version="1.1" id="svg10" sodipodi:docname="touchpad.svg" inkscape:version="1.1 (ce6663b3b7, 2021-05-25)"
   xmlns:inkscape="http://www.inkscape.org/namespaces/inkscape"
   xmlns:sodipodi="http://sodipodi.sourceforge.net/DTD/sodipodi-0.dtd"
   xmlns="http://www.w3.org/2000/svg"
   xmlns:svg="http://www.w3.org/2000/svg">
   <defs id="defs14" />
   <sodipodi:namedview id="namedview12" pagecolor="#ffffff" bordercolor="#666666" borderopacity="1.0" inkscape:pageshadow="2" inkscape:pageopacity="0.0" inkscape:pagecheckerboard="0" showgrid="true" inkscape:snap-page="true" inkscape:zoom="28" inkscape:cx="10.875" inkscape:cy="11.357143" inkscape:window-width="1920" inkscape:window-height="1043" inkscape:window-x="1920" inkscape:window-y="0" inkscape:window-maximized="1" inkscape:current-layer="svg10">
      <inkscape:grid type="xygrid" id="grid824" />
      <inkscape:grid type="xygrid" id="grid826" dotted="true" spacingx="0.5" spacingy="0.5" empspacing="10" />
   </sodipodi:namedview>
   <path id="path861" style="color:#000000;fill:#808080;-inkscape-stroke:none;fill-opacity:1" d="M 5.4550781 3 C 4.4864972 3.0089807 3.7372591 3.0732694 3.1171875 3.4453125 C 2.7038064 3.6933412 2.3972496 4.10122 2.2285156 4.6074219 C 2.0597817 5.1136238 2 5.722223 2 6.5 L 2 17.5 C 2 18.277777 2.059782 18.886376 2.2285156 19.392578 C 2.3972496 19.89878 2.7038064 20.306659 3.1171875 20.554688 C 3.9439497 21.050746 5.0000015 21 6.5 21 L 16.5 21 C 17.999998 21 19.05605 21.05074 19.882812 20.554688 C 20.296194 20.306659 20.60275 19.89878 20.771484 19.392578 C 20.940218 18.886376 21 18.277777 21 17.5 L 21 6.5 C 21 5.722223 20.94022 5.1136238 20.771484 4.6074219 C 20.60275 4.10122 20.296194 3.6933412 19.882812 3.4453125 C 19.056051 2.9492552 17.999998 3 16.5 3 L 6.5 3 C 6.1250004 3 5.7779384 2.9970064 5.4550781 3 z M 6.5 4 L 16.5 4 C 17.999998 4 18.943951 4.050746 19.367188 4.3046875 C 19.578806 4.4316585 19.70975 4.5862809 19.822266 4.9238281 C 19.934781 5.2613754 20 5.7777785 20 6.5 L 20 16 L 3 16 L 3 6.5 C 3 5.7777785 3.065219 5.2613754 3.1777344 4.9238281 C 3.2902501 4.5862809 3.4211942 4.4316585 3.6328125 4.3046875 C 4.056049 4.0507456 5.0000015 4 6.5 4 z M 3 17 L 11 17 L 11 20 L 6.5 20 C 5.0000015 20 4.056049 19.94925 3.6328125 19.695312 C 3.4211942 19.568342 3.2902501 19.413719 3.1777344 19.076172 C 3.0652186 18.738625 3 18.222221 3 17.5 L 3 17 z M 12 17 L 20 17 L 20 17.5 C 20 18.222221 19.93478 18.738625 19.822266 19.076172 C 19.70975 19.413719 19.578807 19.568342 19.367188 19.695312 C 18.943952 19.949254 17.999999 20 16.5 20 L 12 20 L 12 17 z " />
</svg>

<svg height="24" width="24" xmlns="http://www.w3.org/2000/svg"><path style="color:#000;fill:gray;-inkscape-stroke:none;fill-opacity:1" d="M5.455 3c-.969.009-1.718.073-2.338.445-.413.248-.72.656-.888 1.162C2.059 5.114 2 5.722 2 6.5v11c0 .778.06 1.386.229 1.893.168.506.475.914.888 1.162C3.944 21.05 5 21 6.5 21h10c1.5 0 2.556.05 3.383-.445.413-.248.72-.656.888-1.162.17-.507.229-1.115.229-1.893v-11c0-.778-.06-1.386-.229-1.893-.168-.506-.475-.914-.888-1.162C19.056 2.95 18 3 16.5 3h-10c-.375 0-.722-.003-1.045 0zM6.5 4h10c1.5 0 2.444.05 2.867.305.212.127.343.281.455.619.113.337.178.854.178 1.576V16H3V6.5c0-.722.065-1.239.178-1.576.112-.338.243-.492.455-.62C4.056 4.052 5 4 6.5 4zM3 17h8v3H6.5c-1.5 0-2.444-.05-2.867-.305-.212-.127-.343-.281-.455-.619C3.065 18.74 3 18.222 3 17.5V17zm9 0h8v.5c0 .722-.065 1.239-.178 1.576-.112.338-.243.492-.455.62C18.944 19.948 18 20 16.5 20H12v-3z"/></svg>
